styles/2/Numix/256/places/default-folder-templates.svg

<?xml version="1.0" encoding="UTF-8" standalone="no"?>
<svg
   xmlns:dc="http://purl.org/dc/elements/1.1/"
   xmlns:cc="http://creativecommons.org/ns#"
   xmlns:rdf="http://www.w3.org/1999/02/22-rdf-syntax-ns#"
   xmlns:svg="http://www.w3.org/2000/svg"
   xmlns="http://www.w3.org/2000/svg"
   xmlns:sodipodi="http://sodipodi.sourceforge.net/DTD/sodipodi-0.dtd"
   xmlns:inkscape="http://www.inkscape.org/namespaces/inkscape"
   width="256px"
   height="256px"
   viewBox="0 0 256 256"
   version="1.1"
   id="svg5380"
   inkscape:version="0.91 r"
   sodipodi:docname="default-folder-templates.svg">
  <metadata
     id="metadata5393">
    <rdf:RDF>
      <cc:Work
         rdf:about="">
        <dc:format>image/svg+xml</dc:format>
        <dc:type
           rdf:resource="http://purl.org/dc/dcmitype/StillImage" />
      </cc:Work>
    </rdf:RDF>
  </metadata>
  <defs
     id="defs5391" />
  <sodipodi:namedview
     pagecolor="#ffffff"
     bordercolor="#666666"
     borderopacity="1"
     objecttolerance="10"
     gridtolerance="10"
     guidetolerance="10"
     inkscape:pageopacity="0"
     inkscape:pageshadow="2"
     inkscape:window-width="640"
     inkscape:window-height="480"
     id="namedview5389" />
  <g
     id="surface1">
    <path
       style=" stroke:none;fill-rule:nonzero;fill:rgb(91.372549%,69.019608%,50.196078%);fill-opacity:1;"
       d="M 36 32 C 30.140625 32 24 38.046875 24 44 L 24 48 L 12 48 C 6.117188 48 0 53.984375 0 60 L 0 212 C 0 220 4 224 12 224 L 244 224 C 250.273438 224 256 218.570312 256 212 L 256 80 C 256 73.976562 250.179688 68 244 68 L 232 68 L 232 44 C 232 38.15625 226.1875 32 220 32 Z M 36 32 "
       id="path5383" />
    <path
       style=" stroke:none;fill-rule:nonzero;fill:rgb(0%,0%,0%);fill-opacity:0.321569;"
       d="M 36 32 C 30.140625 32 24 38.046875 24 44 L 24 48 L 12 48 C 6.117188 48 0 53.984375 0 60 L 0 212 C 0 220 4 224 12 224 L 244 224 C 250.273438 224 256 218.570312 256 212 L 256 80 C 256 73.976562 250.179688 68 244 68 L 232 68 L 232 44 C 232 38.15625 226.1875 32 220 32 Z M 12 56 L 148 56 C 150.359375 56 152 58.0625 152 60 L 152 76 L 244 76 C 246.023438 76 248 78.03125 248 80 L 248 212 C 248 214.085938 246.085938 216 244 216 L 12 216 C 10.140625 216 8 214.414062 8 212 L 8 60 C 8 58.03125 10.0625 56 12 56 Z M 12 56 "
       id="path5385" />
    <path
       style=" stroke:none;fill-rule:nonzero;fill:rgb(0%,0%,0%);fill-opacity:0.321569;"
       d="M 84 96 C 84 96 76 96.304688 76 104 L 76 120 L 92 120 L 92 112 L 100 112 L 100 96 Z M 108 96 L 108 112 L 124 112 L 124 96 Z M 132 96 L 132 112 L 148 112 L 148 96 Z M 156 96 L 156 112 L 164 112 L 164 120 L 180 120 L 180 104 C 180 96 172 96 172 96 Z M 76 128 L 76 144 L 92 144 L 92 128 Z M 164 128 L 164 144 L 180 144 L 180 128 Z M 76 152 L 76 168 L 92 168 L 92 152 Z M 164 152 L 164 168 L 180 168 L 180 152 Z M 76 176 L 76 192 C 76 200 84 200 84 200 L 100 200 L 100 184 L 92 184 L 92 176 Z M 164 176 L 164 184 L 156 184 L 156 200 L 172 200 C 172 200 180 200 180 192 L 180 176 Z M 108 184 L 108 200 L 124 200 L 124 184 Z M 132 184 L 132 200 L 148 200 L 148 184 Z M 132 184 "
       id="path5387" />
  </g>
</svg>

<svg xmlns="http://www.w3.org/2000/svg" viewBox="0 0 256 256">
 <g>
  <path d="m 36 32 c -5.859 0 -12 6.05 -12 12 l 0 4 l -12 0 c -5.883 0 -12 5.984 -12 12 l 0 152 c 0 8 4 12 12 12 l 232 0 c 6.273 0 12 -5.43 12 -12 l 0 -132 c 0 -6.02 -5.82 -12 -12 -12 l -12 0 l 0 -24 c 0 -5.844 -5.813 -12 -12 -12 m -184 0" style="fill:#e8b07f;fill-opacity:1;stroke:none;fill-rule:nonzero"/>
  <path d="m 36 32 c -5.859 0 -12 6.05 -12 12 l 0 4 l -12 0 c -5.883 0 -12 5.984 -12 12 l 0 152 c 0 8 4 12 12 12 l 232 0 c 6.273 0 12 -5.43 12 -12 l 0 -132 c 0 -6.02 -5.82 -12 -12 -12 l -12 0 l 0 -24 c 0 -5.844 -5.813 -12 -12 -12 m -208 24 l 136 0 c 2.359 0 4 2.063 4 4 l 0 16 l 92 0 c 2.023 0 4 2.031 4 4 l 0 132 c 0 2.086 -1.914 4 -4 4 l -232 0 c -1.859 0 -4 -1.586 -4 -4 l 0 -152 c 0 -1.969 2.063 -4 4 -4 m 0 0" style="fill:#000;fill-opacity:0.322;stroke:none;fill-rule:nonzero"/>
  <path d="m 84 96 c 0 0 -8 0.305 -8 8 l 0 16 l 16 0 l 0 -8 l 8 0 l 0 -16 m 8 0 l 0 16 l 16 0 l 0 -16 m 8 0 l 0 16 l 16 0 l 0 -16 m 8 0 l 0 16 l 8 0 l 0 8 l 16 0 l 0 -16 c 0 -8 -8 -8 -8 -8 m -96 32 l 0 16 l 16 0 l 0 -16 m 72 0 l 0 16 l 16 0 l 0 -16 m -104 24 l 0 16 l 16 0 l 0 -16 m 72 0 l 0 16 l 16 0 l 0 -16 m -104 24 l 0 16 c 0 8 8 8 8 8 l 16 0 l 0 -16 l -8 0 l 0 -8 m 72 0 l 0 8 l -8 0 l 0 16 l 16 0 c 0 0 8 0 8 -8 l 0 -16 m -72 8 l 0 16 l 16 0 l 0 -16 m 8 0 l 0 16 l 16 0 l 0 -16 m -16 0" style="fill:#000;fill-opacity:0.322;stroke:none;fill-rule:nonzero"/>
 </g>
</svg>
